svgs/sharp-light/panel-ews.svg

<svg xmlns="http://www.w3.org/2000/svg" viewBox="0 0 512 512"><!--! Font Awesome Pro 6.6.0 by @fontawesome - https://fontawesome.com License - https://fontawesome.com/license (Commercial License) Copyright 2024 Fonticons, Inc. --><path d="M32 32l0 257.6C68.5 297 96 329.3 96 368l0 16c0 17.7 14.3 32 32 32s32-14.3 32-32l0-32-16 0-32 0 0-32 0-64 0-32 32 0 64 0 32 0 0 32 0 64 0 32-32 0-16 0 0 32c0 35.3-28.7 64-64 64s-64-28.7-64-64l0-16c0-20.9-13.4-38.7-32-45.3L32 480l448 0 0-448L32 32zM0 0L32 0 480 0l32 0 0 32 0 448 0 32-32 0L32 512 0 512l0-32L0 32 0 0zM112 80l96 0 16 0 0 32-16 0-96 0-16 0 0-32 16 0zm192 0l96 0 16 0 0 32-16 0-96 0-16 0 0-32 16 0zM112 144l96 0 16 0 0 32-16 0-96 0-16 0 0-32 16 0zm192 0l96 0 16 0 0 32-16 0-96 0-16 0 0-32 16 0zM208 320l0-64-64 0 0 64 32 0 32 0zm112-64l0 160 64 0 0-160-64 0zm-32-32l32 0 64 0 32 0 0 32 0 160 0 32-32 0-64 0-32 0 0-32 0-160 0-32z"/></svg>

<svg xmlns="http://www.w3.org/2000/svg" viewBox="0 0 512 512"><!--! Font Awesome Pro 6.4.2 by @fontawesome - https://fontawesome.com License - https://fontawesome.com/license (Commercial License) Copyright 2023 Fonticons, Inc. --><path d="M32 32V289.6C68.5 297 96 329.3 96 368v16c0 17.7 14.3 32 32 32s32-14.3 32-32V352H144 112V320 256 224h32 64 32v32 64 32H208 192v32c0 35.3-28.7 64-64 64s-64-28.7-64-64V368c0-20.9-13.4-38.7-32-45.3V480H480V32H32zM0 0H32 480h32V32 480v32H480 32 0V480 32 0zM112 80h96 16v32H208 112 96V80h16zm192 0h96 16v32H400 304 288V80h16zM112 144h96 16v32H208 112 96V144h16zm192 0h96 16v32H400 304 288V144h16zM208 320V256H144v64h32 32zm112-64V416h64V256H320zm-32-32h32 64 32v32V416v32H384 320 288V416 256 224z"/></svg>
